passHover.svg

<?xml version="1.0" encoding="utf-8"?>
<!-- Generator: Adobe Illustrator 21.0.0, SVG Export Plug-In . SVG Version: 6.00 Build 0)  -->
<svg version="1.1" id="Layer_1" xmlns="http://www.w3.org/2000/svg" xmlns:xlink="http://www.w3.org/1999/xlink" x="0px" y="0px"
	 viewBox="0 0 14 16" style="enable-background:new 0 0 14 16;" xml:space="preserve">
<style type="text/css">
	.st0{fill:#00A3E0;}
</style>
<title>passHover</title>
<desc>Created with Sketch.</desc>
<g id="Page-1">
	<path id="passHover" class="st0" d="M9,5H5V4c0-1.1,0.9-2,2-2s2,0.9,2,2V5z M8,11.7V13H6v-1.3c-0.6-0.3-1-1-1-1.7c0-1.1,0.9-2,2-2
		s2,0.9,2,2C9,10.7,8.6,11.4,8,11.7L8,11.7z M7,0C4.8,0,3,1.8,3,4v1H1C0.4,5,0,5.4,0,6v9c0,0.6,0.4,1,1,1h12c0.6,0,1-0.4,1-1V6
		c0-0.6-0.4-1-1-1h-2V4C11,1.8,9.2,0,7,0L7,0z"/>
</g>
</svg>

<?xml version="1.0" encoding="UTF-8"?>
<svg width="14px" height="16px" viewBox="0 0 14 16" version="1.1" xmlns="http://www.w3.org/2000/svg" xmlns:xlink="http://www.w3.org/1999/xlink">
    <!-- Generator: Sketch 42 (36781) - http://www.bohemiancoding.com/sketch -->
    <title>passHover</title>
    <desc>Created with Sketch.</desc>
    <defs></defs>
    <g id="Page-1" stroke="none" stroke-width="1" fill="none" fill-rule="evenodd">
        <path d="M9,5 L5,5 L5,4 C5,2.9 5.9,2 7,2 C8.1,2 9,2.9 9,4 L9,5 Z M8,11.7 L8,13 L6,13 L6,11.7 C5.4,11.4 5,10.7 5,10 C5,8.9 5.9,8 7,8 C8.1,8 9,8.9 9,10 C9,10.7 8.6,11.4 8,11.7 L8,11.7 Z M7,0 C4.8,0 3,1.8 3,4 L3,5 L1,5 C0.4,5 0,5.4 0,6 L0,15 C0,15.6 0.4,16 1,16 L13,16 C13.6,16 14,15.6 14,15 L14,6 C14,5.4 13.6,5 13,5 L11,5 L11,4 C11,1.8 9.2,0 7,0 L7,0 Z" id="passHover" fill="#00A3E0"></path>
    </g>
</svg>
